apps/spreadsheeteditor/main/resources/img/toolbar/2.5x/big/btn-big-named-range.svg

<svg width="28" height="28" viewBox="0 0 28 28" fill="none" xmlns="http://www.w3.org/2000/svg">
<path fill-rule="evenodd" clip-rule="evenodd" d="M25 8L8.47643 8L4.19727 14.5L8.47643 21L25 21V8ZM26 8C26 7.44772 25.5523 7 25 7H8.47643C8.14003 7 7.82617 7.16914 7.64119 7.45013L3.36202 13.9501C3.14235 14.2838 3.14235 14.7162 3.36202 15.0499L7.64118 21.5499C7.82616 21.8309 8.14003 22 8.47643 22L25 22C25.5523 22 26 21.5523 26 21V8ZM8.50002 15.25C8.91423 15.25 9.25002 14.9142 9.25002 14.5C9.25002 14.0858 8.91423 13.75 8.50002 13.75C8.0858 13.75 7.75002 14.0858 7.75002 14.5C7.75002 14.9142 8.0858 15.25 8.50002 15.25ZM8.50002 16.25C9.46652 16.25 10.25 15.4665 10.25 14.5C10.25 13.5335 9.46652 12.75 8.50002 12.75C7.53352 12.75 6.75002 13.5335 6.75002 14.5C6.75002 15.4665 7.53352 16.25 8.50002 16.25ZM22 11H15V12H22V11ZM15 14H22V15H15V14ZM22 17H15V18H22V17Z" fill="black"/>
</svg>

<svg xmlns="http://www.w3.org/2000/svg" width="28" height="28" fill="none"><path fill="#000" d="M25 8v13H8.476l-4.279-6.5L8.477 8H25Zm1 0a1 1 0 0 0-1-1H8.476a1 1 0 0 0-.835.45l-4.279 6.5a1 1 0 0 0 0 1.1l4.28 6.5a1 1 0 0 0 .834.45H25a1 1 0 0 0 1-1V8ZM8.5 15.25a.75.75 0 1 1 0-1.5.75.75 0 0 1 0 1.5Zm0 1a1.75 1.75 0 1 0 0-3.5 1.75 1.75 0 0 0 0 3.5ZM22 11h-7v1h7v-1Zm-7 3h7v1h-7v-1Zm7 3h-7v1h7v-1Z"/></svg>
